X: 10
T:Abergenny
M:4/4
L:1/8
Q:220
C:Trad
S:Source unknown
R:
A:Wales
Z:brian_martin12345@yahoo.com
K:Gm
.G2.G2B3c|d=ef2F3F|G2G2 Bcd2|c4B4:||
b2b2a2gf|g2fga2d2|=efg2f2g2|a4g4:||
